-----BEGIN PGP PUBLIC KEY BLOCK-----

mQGiBDi2lsIRBADHZcRHc8gX8o4U5E3NYE/50i6uHCXYuSdXS5GpvqYzTxdf0Lz/
Mip2DCyVquwvrDRT4SMWsm4vAaVWhfvIva102obttX/tPrP4dXq5gTiIgcymCMi7
8BoZ1VGBmg3Wygwib20ogjDXUlz+S3nahB8VsC+jSqRxNbnTa3NqgUM+FwCg3uGR
KC/KvGQLtpPvMIpuidUzJtEEALMaoB9Kktmt75MwHDPIdq2Thc6iO/G4kJ0QFAiP
YwfYln6XblkQKyiMrpe+vTCwwI+ZdHQRDp8O5OFr9wlNxkk7pNgUOAZFMDLroZHL
brvvNyvDprEkMI7W5nYTZ4wKkCFFKBGkFq1XI91xfncSbHTUlTqZQGDIGahCsJit
CBDZA/4q86QYWARktkwhdsO7Pqw61pjl0ttIohXRGf+bm9aSbv9MfDaWVWdB7wBC
iQ1gScJxQZsOU0CKFwi1toa/7ZC5MZ4P7nCj/9wRww+DiWvF+UBs1+GXCz1CTpmF
bv9m5UtMJtMx305GAHKpeg5qaXOA4ZPLHXL1qon5jbzdzgHBIrQiQWtpbSBEZW1h
aWxsZSA8YWtpbUBscmRlLmVwaXRhLmZyPoheBBMRAgAeBQI/cffbAhsDBgsJCAcD
AgMVAgMDFgIBAh4BAheAAAoJEA3cqjJ41SZOXYoAn2SrtIEWRQnws8WAXyXkSGXq
7CVhAKDc1X2Ou30t1nG8ijq9llqUt4CGYYhGBBMRAgAGBQI/cgBvAAoJEDhZwDsu
I25HxTYAoIvevzVtqzK9u380Xb/sifOjeohGAKCSzWM02sEqyN7ayP+5C1dJnITF
WLQdQWtpbSBEZW1haWxsZSA8YWtpbUBlcGl0YS5mcj6IVgQTEQIAFgUCOLaWwgQL
CgQDAxUDAgMWAgECF4AACgkQDdyqMnjVJk4k8gCgynpSdoHkE2nkVx5vPbvfNa9W
I18AnjnPoLoFmfasSlNjiiUOtjhRK4aziEYEExECAAYFAj9yAH8ACgkQOFnAOy4j
bkdX2ACfXrjRD8nu+V0ZeVwqMIjTQlnbPt4AmgL2tkeNgyNqqog735IfRX8QWN8K
iFYEExECABYFAji2lsIECwoEAwMVAwIDFgIBAheAAAoJEA3cqjJ41SZOJPIAn0sy
4c1wrdPAVj0tFomZFZa+xmirAKDTCpC18OAxpMRmaDkg21z974ReCLQkQWtpbSBE
ZW1haWxsZSA8YWtpbUBmcmVlZnJpZW5kcy5vcmc+iF4EExECAB4FAj9x96ECGwMG
CwkIBwMCAxUCAwMWAgECHgECF4AACgkQDdyqMnjVJk5YAgCgrOGfKgBt5yRMlONI
oLjDmUVBvqsAoLJpiQkrxwHeNmAL9mA0vFh+QHHMiEYEExECAAYFAj9yAH8ACgkQ
OFnAOy4jbkeUjgCgrQ9HQPqurp84HvNosNwMwOl4t/gAnRlvYxmMu6Ce9QsR4e3z
avj+IIR8tBxBa2ltIERlbWFpbGxlIDxha2ltQGdudS5vcmc+iF4EExECAB4FAj9x
980CGwMGCwkIBwMCAxUCAwMWAgECHgECF4AACgkQDdyqMnjVJk4i5wCfd6hyWTRo
UM2ea9Aqttc7NVWt2pcAoMvbayvg5lSxGO9LDzfkKBW/ODUmiEYEExECAAYFAj9y
AH8ACgkQOFnAOy4jbkeNXACgt6rq6avLxkE8ULs0Hu7dxpLV22QAoJgxc3fq0cvs
fXOR8w1CbPPHupd7tCBBa2ltIERlbWFpbGxlIDxkZW1haWxsZUBlbnN0LmZyPohe
BBMRAgAeBQI/x0F0AhsDBgsJCAcDAgMVAgMDFgIBAh4BAheAAAoJEA3cqjJ41SZO
pZIAnR5loXLITU90zWQJsfy1ueEDVetcAJ9xKbOyt5PnY8tXNYMftubuTzOBfLkB
DQQ4tpbYEAQAkB/vNPi5CvJzMn53ae1GuL5uJ81C2qZu83+KeBZzvtHdI3DoORs9
7oGnGnxJS0Kg8W7mzbLbrTt66uwwotLEJVwZ0cgncwwb2Sv4/mWcynf59qSfGQWk
/5cXf4mpWoMAMn9jPQCHbRR8BJXhU4msioBmKTd9PpFpYMoPWqRr1hcABAsD/2/q
LVh7M3P4GIojCwmLN9aOUnfo3RzXtbKn4hL/01TUXOISfBc6O7DuQw3gdusvMBa4
H6S1/rJE6JkJX2dsgDFy7KgK1xMgqFKKBt2whZbYMGedzT6usDsoeqtCHdVaRKOm
eT2saBcoT4s69h+rIZWy8pnghJY/U5Me3QZKfHuXiEYEGBECAAYFAji2ltgACgkQ
DdyqMnjVJk7SUQCeLP/OUphSnUAeSi83rklesEYZ7doAnRFr5KVTm9VWnS9Z90JX
URPCSa1P
=X+tK
-----END PGP PUBLIC KEY BLOCK-----
